X:1
T:Tuba JSU Fanfare
T:Tuba Fanfare
L:1/8
M:4/4
K:Bb
V:1 bass nm="B♭ Tuba" snm="B♭ Tu."
V:1
!ff! .G,, z2 .G,, .C, z .=E, z | .G,.G, z2 .G,.G, z2 | .G,, z2 .G,, .C, z .=E, z | %3
 .G,.G, z2 .G,.G,.=E, z | F, z2 .C, .=E,.F,.E, z |!ff! D, z2 .C, .=E,.G, z2 | %6
 C, z2 .E, .D,.C,.B,,.^G,, | G,,4 B,,4 | ^G,,4 z4 |] %9

